X:7
T:Ball. Roose.0042, The
M:6/8
L:1/8
Q:3/8=110
B:John Roose MS, Manchester, 1850
Z:Village Music Project. Steve Mansfield, 2019
K:G
d | B2G AGF | GAB D2D | E2G c2B | B3 A2d |
B2G AGF | GAB D2D | E2c A2F | G3 G2 :|
|: B | A2D cBA | BdB GAB | A2D cBA | c3 B2d |
e2B A2f | g2d BAG | E2c A2F | G3 G2 :|

